X:182
T:B182-  The Haymakers
Q:1/4=120
L:1/4
M:C|
K:C
c|g3/2a/2ge|c3d|cBAA|f3e|ddde|d2B2|cAdD|G3||G|\
c3/2d/2cB|A3e|fedc|B3B|\
c3/2B/2AB/2c/2|d/2c/2B/2A/2 Gg|e3/2f/2gG|c3|]
